X: 33408
T: Quille's
R: reel
M: 4/4
K: Dmajor
D2FA BABc|dfed BE~E2|D2FA BABc|1 dBAG FGAF:|2 dBAG FGAc||
d2fd Adfa|g2fg eBBA|1 d2fd Adfa|gaea fddA:|2 f3e d3B|A3G FGAF||D8||

